X: 4266
T: MAJOR MACKIE
%R: jig
B: James Kerr "Merry Melodies" v.4 p.28 #266
Z: 2016 John Chambers <jc:trillian.mit.edu>
M: 6/8
L: 1/8
K: A
E |\
EFG AGA | F2B B3  | G2e e3  | c2A AGF |\
EFG AGA | F2B B2A | GAB AGF | E3- E2 :|
|: d |\
cBc ABc | d3- d2c | BAB GAB | c3- c2B |\
A2A ABc | d2F B2A | G2e dcB | A3- A2 :|

%%sep 1 1 500
%%sep 1 1 500

